static/img/icons/request.svg

<?xml version="1.0" encoding="UTF-8"?>
<svg width="21px" height="21px" viewBox="0 0 21 21" version="1.1" xmlns="http://www.w3.org/2000/svg" xmlns:xlink="http://www.w3.org/1999/xlink">
    <!-- Generator: Sketch 49.1 (51147) - http://www.bohemiancoding.com/sketch -->
    <title>Page 1</title>
    <desc>Created with Sketch.</desc>
    <defs></defs>
    <g id="Page-1" stroke="none" stroke-width="1" fill="none" fill-rule="evenodd">
        <g id="Landing-page" transform="translate(-380.000000, -2345.000000)" fill="#6E7195">
            <g id="membrana-platform-components" transform="translate(380.000000, 2014.000000)">
                <g id="for-investors">
                    <g id="text" transform="translate(0.000000, 153.000000)">
                        <g id="Page-1" transform="translate(0.000000, 178.000000)">
                            <path d="M19.5681818,18.375 C19.5681818,18.879 19.1395909,19.2880435 18.6136364,19.2880435 L1.90909091,19.2880435 C1.38313636,19.2880435 0.954545455,18.879 0.954545455,18.375 L0.954545455,1.82608696 C0.954545455,1.32208696 1.38313636,0.913043478 1.90909091,0.913043478 L14.1769091,0.913043478 L14.1769091,6.06991304 L19.5681818,6.06991304 L19.5681818,18.375 Z M18.8933182,5.15686957 L15.1314545,5.15686957 L15.1314545,1.55856522 L18.8933182,5.15686957 Z M15.1476818,0.283956522 L14.8517727,0 L1.90909091,0 C0.856227273,0 0,0.819 0,1.82608696 L0,18.375 C0,19.382087 0.856227273,20.201087 1.90909091,20.201087 L18.6136364,20.201087 C19.6665,20.201087 20.5227273,19.382087 20.5227273,18.375 L20.5227273,5.4243913 L15.1476818,0.283956522 Z" id="Fill-1"></path>
                            <polygon id="Fill-3" points="11.8461 9.38544783 13.4172818 10.8883174 5.12419091 10.8883174 5.12419091 11.8013609 13.4172818 11.8013609 11.8461 13.3051435 12.5209636 13.9506652 15.2452364 11.3448391 12.5209636 8.73992609"></polygon>
                        </g>
                    </g>
                </g>
            </g>
        </g>
    </g>
</svg>

<svg width="21" height="21" xmlns="http://www.w3.org/2000/svg"><g fill="#6E7195" fill-rule="evenodd"><path d="M19.568 18.375c0 .504-.428.913-.954.913H1.909c-.526 0-.954-.409-.954-.913V1.826c0-.504.428-.913.954-.913h12.268V6.07h5.391v12.305zm-.675-13.218h-3.762V1.559l3.762 3.598zM15.148.284L14.852 0H1.909C.856 0 0 .819 0 1.826v16.549c0 1.007.856 1.826 1.91 1.826h16.704c1.052 0 1.909-.819 1.909-1.826V5.425L15.148.283z"/><path d="M11.846 9.385l1.571 1.503H5.124v.913h8.293l-1.57 1.504.674.646 2.724-2.606-2.724-2.605z"/></g></svg>
